!! 00026] TT[TB
!! Eigene Aufnahme
!!!OTL: Xiu jin bian, Goldinschriften sticken)
!!!ARE: Asia, China, Shanxi Guanzhong
!! Ethnic Group: Han
!! I, 57, 1)
!!!SCT: C0015
!!!YEM: Copyright 1995, estate of Helmut Schaffrath.
**kern
*ICvox
*Ivox
*M2/4
*k[b-e-]
*B-:
{8ccc
16bb-
16gg
8ccc
16fff
16ddd
=1
8ccc
16ddd
16ccc
8bb-
8gg}
=2
{8ccc
16ddd
16fff
16ccc
16bb-
8gg
=3
16gg
16ff
16ee-
16cc
4ff}
=4
{16gg
16ccc
16ff
16gg
8.ccc
16bb-
=5
16gg
16bb-
16gg
16ff
8.ee-
16ff}
=6
{8gg
16gg
16bb-
16gg
16ff
16ee-
16dd
=7
8.cc
16ff
4cc}
==
!!!AGN: Xiaodiao, Xiu hebao. Geming lishi minge
!! Es gibt viele Varianten zu dieser Weise. Neues Volkslied.
!!    +++BEREITS KODIERT?+++ mit yin statt jin
!!    Die Saengerin Lei Huilan ist Angehoerige der Zhuang Minderheit und
!!    studiert an der Guangzhouer Musikhochschule.
!!    Aufgenommen am 5.5.87   Zweimal gesungen!!!
!!    AUCH ALS KASSETTE 4 = 49, CUT 2, A-Seite)
!!    Pinyin-Text der ersten Strophe vorhanden!
!!!ONB: ESAC (Essen Associative Code) Database: CHINA
!!!AMT: simple duple
!!!AIN: vox
!!!EED: Helmut Schaffrath
!!!EEV: 1.0
*-
